src/lib/packages/icons/src/assets/filled/alarm-clock-alt.svg

<svg width="24" height="24" viewBox="0 0 24 24" fill="none" xmlns="http://www.w3.org/2000/svg">
<path fill-rule="evenodd" clip-rule="evenodd" d="M5.53005 3.53005L3.53005 5.53005C3.38405 5.67605 3.19202 5.75002 3.00002 5.75002C2.80802 5.75002 2.61599 5.67705 2.46999 5.53005C2.17699 5.23705 2.17699 4.76202 2.46999 4.46902L4.46999 2.46902C4.76299 2.17602 5.23803 2.17602 5.53103 2.46902C5.82403 2.76202 5.82305 3.23705 5.53005 3.53005ZM21.5249 4.46401L19.5249 2.50405C19.2289 2.21405 18.7549 2.21904 18.4629 2.51504C18.1739 2.81104 18.1791 3.28607 18.4741 3.57607L20.4741 5.53603C20.6201 5.67903 20.81 5.75002 20.999 5.75002C21.193 5.75002 21.3879 5.67505 21.5349 5.52505C21.8249 5.22905 21.8199 4.75401 21.5249 4.46401ZM16.6031 18.5371L18.532 20.471C18.824 20.764 18.8241 21.239 18.5301 21.532C18.3841 21.678 18.192 21.751 18.001 21.751C17.809 21.751 17.616 21.6771 17.47 21.5301L15.252 19.3059C14.258 19.7489 13.16 20 12.002 20C10.844 20 9.74598 19.7489 8.75198 19.3059L6.53298 21.5301C6.38698 21.6761 6.19398 21.75 6.00198 21.75C5.81098 21.75 5.61892 21.677 5.47292 21.531C5.17892 21.239 5.17897 20.763 5.47097 20.47L7.39993 18.5371C5.34693 17.0891 4.00295 14.703 4.00295 12C4.00295 7.58202 7.58495 4.00002 12.003 4.00002C16.421 4.00002 20.003 7.58202 20.003 12C20 14.703 18.6561 17.0891 16.6031 18.5371ZM12.75 8.04006C12.75 7.62606 12.414 7.29006 12 7.29006C11.586 7.29006 11.25 7.62606 11.25 8.04006V12.0401C11.25 12.4541 11.586 12.7901 12 12.7901C12.414 12.7901 12.75 12.4541 12.75 12.0401V8.04006Z" fill="currentColor"/>
</svg>

<svg xmlns="http://www.w3.org/2000/svg" width="24" height="24" fill="none"><path fill="currentColor" fill-rule="evenodd" d="m5.53 3.53-2 2a.748.748 0 0 1-1.06 0 .75.75 0 0 1 0-1.061l2-2A.75.75 0 1 1 5.53 3.53Zm15.995.934-2-1.96a.751.751 0 0 0-1.05 1.072l2 1.96a.748.748 0 0 0 1.06-.01.751.751 0 0 0-.01-1.062Zm-4.922 14.073 1.929 1.934a.75.75 0 0 1-1.062 1.06l-2.218-2.225a7.96 7.96 0 0 1-6.5 0L6.533 21.53a.75.75 0 0 1-1.062-1.06L7.4 18.537A7.985 7.985 0 0 1 4.003 12a8 8 0 0 1 16 0 7.995 7.995 0 0 1-3.4 6.537ZM12.75 8.04a.75.75 0 0 0-1.5 0v4a.75.75 0 0 0 1.5 0v-4Z" clip-rule="evenodd"/></svg>
